X:3
T:Devon
C:Jackie Tolliday-Bailey
M:4/4
L:1/8
K:Em
GF | E2 EF GFGA | BcBG E2 GE | F2 FG AFDF | AGFE D2 GF |
E2 EF GFGA | B2 e2 e2 B2 | c3/2  B AGFD | EFGF E4 ||
B2 e2 efge | efed B2 B2 | c3/2 B ABcA | BcBG E4 |
B2 e2 efge | efed B2 B2 | A3/2G F2D2 |EFGF E4 ||  

